public/img/icons/icon-form-2.svg

<svg width="186" height="186" viewBox="0 0 186 186" fill="none" xmlns="http://www.w3.org/2000/svg">
<path d="M84.0001 92.7849C84.0001 94.561 85.5205 96 87.3948 96C89.2691 96 90.7895 94.561 90.7895 92.7849C90.7895 72.159 101.643 69.0257 111.001 69.0257C120.359 69.0257 131.212 75.2306 131.212 92.7849C131.212 94.561 132.731 96 134.605 96C136.48 96 138 94.561 138 92.7849C138 76.7664 130.129 69.751 123.223 65.809C130.129 61.867 134.759 54.6934 134.759 46.512C134.759 34.0995 124.1 24 111.001 24C97.8999 24 87.2416 34.0995 87.2416 46.512C87.2416 54.6934 91.8725 61.867 98.7787 65.809C91.8725 69.751 84.0001 73.6948 84.0001 92.7849ZM94.031 46.512C94.031 37.645 101.643 30.4318 111.001 30.4318C120.359 30.4318 127.971 37.645 127.971 46.512C127.971 55.379 120.359 62.5922 111.001 62.5922C101.643 62.5922 94.031 55.379 94.031 46.512Z" fill="#DADAE4"/>
<path fill-rule="evenodd" clip-rule="evenodd" d="M35.9168 0H171.77C179.622 0.0170288 185.983 6.37729 186 14.229V84.9709C185.983 92.8226 179.622 99.1829 171.77 99.1999H72.0067C73.9567 107.713 78.0737 130.963 70.8813 152.145L70.6429 152.721C69.5686 155.164 68.8206 157.738 68.4204 160.376C68.3268 161.083 68.2828 161.795 68.287 162.509L68.1905 179.8C68.1905 183.224 65.4146 186 61.9901 186H21.6866C18.2621 186 15.4862 183.224 15.4862 179.8V162.862C15.5047 161.159 15.3173 159.462 14.9285 157.806C14.6539 156.701 14.4272 155.586 14.2054 154.495L14.1933 154.436L14.1899 154.419C13.964 153.315 13.7392 152.217 13.4653 151.128L1.6832 104.905C0.195892 101.002 -0.316434 96.7946 0.188797 92.6495C3.23437 68.9681 18.9433 39.2642 21.6866 34.218V14.229C21.7037 6.37729 28.0644 0.0170288 35.9168 0ZM35.9168 99.1999C33.0486 99.2013 30.2486 98.33 27.8871 96.7009V97.0117C27.8842 99.4298 28.8776 101.743 30.6346 103.406C32.0935 104.825 34.079 105.57 36.1127 105.462C39.6379 105.244 42.5714 102.668 43.2426 99.1999H35.9168ZM35.9168 6.19991C31.4847 6.20558 27.8927 9.79724 27.8871 14.229V84.9709C27.8927 89.4027 31.4847 92.9943 35.9168 93H43.3888V6.19991H35.9168ZM64.9448 150.241L65.0896 149.906C73.2031 126.015 65.2883 97.8447 65.2116 97.5751C65.1308 97.2969 65.0896 97.0089 65.0896 96.7194V57.4807C65.0924 55.0541 64.0947 52.7354 62.3307 51.0694C60.8732 49.6503 58.8878 48.9053 56.8555 49.0174C52.7654 49.2729 49.5807 52.6687 49.5892 56.767V97.7241C49.5793 105.088 43.8543 111.178 36.5058 111.644C32.7676 111.852 29.109 110.506 26.3983 107.923C23.3939 105.089 21.6895 101.143 21.6866 97.0117V47.9843C16.1248 59.6633 8.30654 78.1693 6.34381 93.4371C5.95921 96.6257 6.36935 99.8612 7.54018 102.851C7.57992 102.966 7.61824 103.081 7.64804 103.202L19.4798 149.597C19.7835 150.787 20.0304 151.986 20.276 153.198C20.4874 154.234 20.7003 155.276 20.9586 156.323C21.4652 158.466 21.7093 160.661 21.6866 162.862V179.8H61.9901V176.678L62.0738 162.465C62.0696 161.466 62.1377 160.467 62.2753 159.476C62.7522 156.293 63.6491 153.188 64.9448 150.241ZM179.8 68.7708V30.4291C178.808 30.7966 177.759 30.9896 176.7 30.9995C174.987 30.9995 173.599 32.3874 173.599 34.1002V65.0997C173.599 66.8125 174.987 68.2004 176.7 68.2004C177.759 68.2103 178.808 68.4033 179.8 68.7708ZM83.6923 93H171.77C176.203 92.9943 179.795 89.4027 179.8 84.9709V77.4995C179.8 75.7881 178.412 74.4003 176.7 74.4003C171.563 74.4003 167.399 70.2367 167.399 65.0997V34.1002C167.399 28.9632 171.563 24.7996 176.7 24.7996C178.412 24.7996 179.8 23.4118 179.8 21.7004V14.229C179.795 9.79724 176.203 6.20558 171.77 6.19991H49.5892V45.1945C51.6343 43.8165 54.01 43.0063 56.4709 42.8487C60.209 42.6401 63.8677 43.9854 66.5783 46.5681C69.5813 49.4034 71.2858 53.3498 71.29 57.4807V93H83.6923Z" fill="#DADAE4"/>
</svg>

<svg width="186" height="186" viewBox="0 0 186 186" fill="none" xmlns="http://www.w3.org/2000/svg"><path d="M84 92.785C84 94.56 85.52 96 87.395 96c1.874 0 3.395-1.439 3.395-3.215 0-20.626 10.853-23.76 20.211-23.76 9.358 0 20.211 6.206 20.211 23.76 0 1.776 1.519 3.215 3.393 3.215 1.875 0 3.395-1.439 3.395-3.215 0-16.019-7.871-23.034-14.777-26.976 6.906-3.942 11.536-11.116 11.536-19.297C134.759 34.099 124.1 24 111.001 24c-13.101 0-23.76 10.1-23.76 22.512 0 8.181 4.632 15.355 11.538 19.297C91.873 69.751 84 73.695 84 92.785zm10.031-46.273c0-8.867 7.612-16.08 16.97-16.08 9.358 0 16.97 7.213 16.97 16.08 0 8.867-7.612 16.08-16.97 16.08-9.358 0-16.97-7.213-16.97-16.08z" fill="#DADAE4"/><path fill-rule="evenodd" clip-rule="evenodd" d="M35.917 0H171.77c7.852.017 14.213 6.377 14.23 14.229v70.742c-.017 7.852-6.378 14.212-14.23 14.229H72.007c1.95 8.513 6.067 31.763-1.126 52.945l-.238.576a30.313 30.313 0 0 0-2.223 7.655 15.547 15.547 0 0 0-.133 2.133L68.19 179.8a6.2 6.2 0 0 1-6.2 6.2H21.687a6.2 6.2 0 0 1-6.2-6.2v-16.938c.018-1.703-.17-3.4-.559-5.056a78.788 78.788 0 0 1-.723-3.311l-.012-.059-.003-.017a75.56 75.56 0 0 0-.725-3.291L1.683 104.905A25.69 25.69 0 0 1 .19 92.65c3.045-23.682 18.754-53.386 21.498-58.432V14.229C21.704 6.377 28.064.017 35.917 0zm0 99.2a14.127 14.127 0 0 1-8.03-2.5v.312a8.79 8.79 0 0 0 2.748 6.394 7.3 7.3 0 0 0 5.478 2.056 7.75 7.75 0 0 0 7.13-6.262h-7.326zm0-93a8.04 8.04 0 0 0-8.03 8.029v70.742A8.04 8.04 0 0 0 35.917 93h7.472V6.2h-7.472zM64.945 150.24l.145-.335c8.113-23.891.198-52.061.122-52.33a3.068 3.068 0 0 1-.122-.857V57.481a8.803 8.803 0 0 0-2.76-6.412 7.275 7.275 0 0 0-5.474-2.052 7.75 7.75 0 0 0-7.267 7.75v40.957c-.01 7.364-5.735 13.454-13.083 13.92a13.56 13.56 0 0 1-10.108-3.721 15.013 15.013 0 0 1-4.711-10.911V47.984C16.125 59.664 8.307 78.17 6.344 93.437a19.437 19.437 0 0 0 1.196 9.414c.04.115.078.23.108.351l11.832 46.395c.303 1.19.55 2.389.796 3.601a78.46 78.46 0 0 0 .683 3.125 27.2 27.2 0 0 1 .728 6.539V179.8H61.99v-3.122l.084-14.213c-.004-.999.064-1.998.201-2.989a36.309 36.309 0 0 1 2.67-9.235zM179.8 68.771V30.429a9.171 9.171 0 0 1-3.1.57 3.1 3.1 0 0 0-3.101 3.101v31a3.1 3.1 0 0 0 3.101 3.1 9.171 9.171 0 0 1 3.1.57zM83.692 93h88.078a8.04 8.04 0 0 0 8.03-8.03V77.5a3.1 3.1 0 0 0-3.1-3.1 9.3 9.3 0 0 1-9.301-9.3v-31a9.3 9.3 0 0 1 9.301-9.3 3.1 3.1 0 0 0 3.1-3.1V14.23a8.04 8.04 0 0 0-8.03-8.03H49.59v38.995a13.908 13.908 0 0 1 6.88-2.345 13.557 13.557 0 0 1 10.108 3.72A15.03 15.03 0 0 1 71.29 57.48V93h12.402z" fill="#DADAE4"/></svg>
